X: 707
T: Kansas City Reel
B: jims roots
M:C
L:1/8
Q: 1/4=100
K:A
V:1 
%
%Transcribed by Bruce Thomson
(3EFG|:"A"A2Ac BAcB|Acega2ga|"E"bgeg fecd|efed cABG|
"A"A2Ac BAcB|Acega2ga|"E"bgeg fecd|[1ecBG "A"A2(3EFG:|
[2ecBG"A"A4|:"A"e4e3a|fecd ec3|"E"B2efg2ef|gfeg fecd|
"A"e4e3a|fecd ec3|"E"B2eg fefg|[1"A"afecA4:|[2 "A"a3aa4|]
% abcbook-tune_id 6298c25d5f7ea24ecfbab396


% abcbook-boost 0
% abcbook-tablature 
% abcbook-transpose 
% abcbook-lastupdated 1654178399403
% abcbook-soundfonts 
% abcbook-repeats 1


